svg/fluentui-system-icons/ic_fluent_animal_turtle_20_regular.svg

<svg width="20" height="20" viewBox="0 0 20 20" fill="none" xmlns="http://www.w3.org/2000/svg">
<path d="M9.10356 4.00195C7.62757 4.00195 6.60491 4.55131 5.88821 5.37987C5.19403 6.1824 4.81256 7.21817 4.53088 8.14885L4.27299 9.0009H2.5C2.22386 9.0009 2 9.22476 2 9.5009C2 10.5771 2.49744 11.6028 3.29787 12.1309L2.85629 13.2034C2.58077 13.8726 2.89996 14.6384 3.56917 14.9139C3.72741 14.9791 3.89688 15.0126 4.068 15.0126H5.53087C6.03848 15.0126 6.50044 14.7194 6.71657 14.2601L7.18692 13.2605C8.50072 13.442 9.83117 13.4417 11.1449 13.2598L11.6156 14.2601C11.8318 14.7194 12.2937 15.0126 12.8013 15.0126H14.2496C14.421 15.0126 14.5907 14.979 14.7491 14.9137C15.4181 14.6378 15.7369 13.8719 15.4611 13.2028L14.9638 11.9968H16.6669C17.3414 11.9968 18.0005 11.4756 18.0005 10.7404V9.99875C18.0005 8.86204 17.0126 8.00262 15.8791 8.00262H13.8047C13.5184 7.09622 13.0983 6.12672 12.3962 5.36741C11.6388 4.5483 10.5787 4.00195 9.10356 4.00195ZM14.6725 10.9968L14.0966 9.00262H15.8791C16.5365 9.00262 17.0005 9.48753 17.0005 9.99875V10.7404C17.0005 10.8294 16.8879 10.9968 16.6669 10.9968H14.6725ZM14.1015 12.5287L14.5366 13.584C14.6019 13.7424 14.5264 13.9238 14.3679 13.9892C14.3304 14.0046 14.2902 14.0126 14.2496 14.0126H12.8013C12.6811 14.0126 12.5717 13.9431 12.5205 13.8344L12.166 13.081C12.8189 12.9425 13.4655 12.7584 14.1015 12.5287ZM6.16574 13.082L5.81173 13.8344C5.76055 13.9431 5.65113 14.0126 5.53087 14.0126H4.068C4.02746 14.0126 3.98732 14.0046 3.94983 13.9892C3.79131 13.924 3.71575 13.7426 3.78099 13.5841L4.21697 12.5252C4.85726 12.7571 5.50828 12.9427 6.16574 13.082ZM3.63265 11.1166C3.35602 10.8563 3.13818 10.4739 3.04676 10.0009H3.97033L3.63265 11.1166ZM5.488 8.43853C5.76391 7.52694 6.0972 6.66684 6.64453 6.03407C7.16935 5.42733 7.91496 5.00195 9.10356 5.00195C10.2976 5.00195 11.0923 5.43023 11.662 6.04631C12.2485 6.68058 12.6208 7.54146 12.8919 8.43538L13.7985 11.5749C10.7957 12.6689 7.54061 12.6706 4.53785 11.5778L5.488 8.43853Z" fill="#212121"/>
</svg>

<svg xmlns="http://www.w3.org/2000/svg" width="20" height="20"><path d="M9.104 4.002c-1.476 0-2.5.55-3.216 1.378-.694.802-1.075 1.838-1.357 2.769L4.273 9H2.5a.5.5 0 0 0-.5.5c0 1.076.497 2.102 1.298 2.63l-.442 1.072a1.31 1.31 0 0 0 1.212 1.81h1.463c.507 0 .97-.294 1.186-.753l.47-1c1.314.182 2.644.182 3.958 0l.47 1c.217.46.679.753 1.186.753h1.449a1.31 1.31 0 0 0 1.211-1.81l-.497-1.206h1.703c.674 0 1.333-.521 1.333-1.257V10c0-1.137-.987-1.996-2.12-1.996h-2.075c-.287-.907-.707-1.876-1.409-2.636-.757-.819-1.817-1.365-3.292-1.365Zm5.569 6.995-.576-1.994h1.782c.658 0 1.121.485 1.121.996v.741c0 .09-.112.257-.333.257h-1.995Zm-.572 1.532.436 1.055a.31.31 0 0 1-.287.429H12.8a.31.31 0 0 1-.28-.179l-.355-.753c.653-.138 1.3-.323 1.935-.552Zm-7.935.553-.354.752a.31.31 0 0 1-.281.179H4.068a.311.311 0 0 1-.287-.429l.436-1.059c.64.232 1.291.418 1.949.557Zm-2.533-1.965A2.056 2.056 0 0 1 3.047 10h.923l-.337 1.116Zm1.855-2.678c.276-.912.61-1.772 1.157-2.405.524-.607 1.27-1.032 2.459-1.032 1.194 0 1.988.428 2.558 1.044.586.635.959 1.495 1.23 2.39l.907 3.139a13.482 13.482 0 0 1-9.261.003l.95-3.14Z"/></svg>
